public/svgs/arrow.svg

<svg fill="none" height="14" viewBox="0 0 24 14" width="24" xmlns="http://www.w3.org/2000/svg"><path d="m17.5 13.5 6.5-6.5-6.5-6.5-.707.707 5.293 5.293h-22.086v1h22.086l-5.293 5.293z" fill="#1b3b5d"/></svg>

<svg width="24" height="14" viewBox="0 0 24 14" fill="none" xmlns="http://www.w3.org/2000/svg">
<path d="M17.5 13.5L24 7L17.5 0.5L16.793 1.207L22.086 6.5L0 6.5V7.5L22.086 7.5L16.793 12.793L17.5 13.5Z" fill="#1B3B5D"/>
</svg>
